resources/icons/folder_github.svg

<?xml version="1.0" encoding="UTF-8" standalone="no"?>
<svg
   xmlns:dc="http://purl.org/dc/elements/1.1/"
   xmlns:cc="http://creativecommons.org/ns#"
   xmlns:rdf="http://www.w3.org/1999/02/22-rdf-syntax-ns#"
   xmlns:svg="http://www.w3.org/2000/svg"
   xmlns="http://www.w3.org/2000/svg"
   xmlns:sodipodi="http://sodipodi.sourceforge.net/DTD/sodipodi-0.dtd"
   xmlns:inkscape="http://www.inkscape.org/namespaces/inkscape"
   width="16"
   height="16"
   viewBox="0 0 16 16"
   version="1.1"
   id="svg4"
   sodipodi:docname="folder_github.svg"
   inkscape:version="0.92.4 (5da689c313, 2019-01-14)">
  <metadata
     id="metadata10">
    <rdf:RDF>
      <cc:Work
         rdf:about="">
        <dc:format>image/svg+xml</dc:format>
        <dc:type
           rdf:resource="http://purl.org/dc/dcmitype/StillImage" />
      </cc:Work>
    </rdf:RDF>
  </metadata>
  <defs
     id="defs8" />
  <sodipodi:namedview
     pagecolor="#ffffff"
     bordercolor="#666666"
     borderopacity="1"
     objecttolerance="10"
     gridtolerance="10"
     guidetolerance="10"
     inkscape:pageopacity="0"
     inkscape:pageshadow="2"
     inkscape:window-width="1920"
     inkscape:window-height="1001"
     id="namedview6"
     showgrid="false"
     inkscape:zoom="14.75"
     inkscape:cx="8"
     inkscape:cy="8"
     inkscape:window-x="-9"
     inkscape:window-y="-9"
     inkscape:window-maximized="1"
     inkscape:current-layer="svg4" />
  <path
     fill="#161514"
     fill-rule="evenodd"
     d="M7.99707713,1 C4.13339149,1 1,4.1329619 1,7.9979363 C1,11.0896581 3.00487223,13.7122732 5.78557461,14.6375989 C6.13568621,14.7020366 6.2632729,14.4859554 6.2632729,14.3003748 C6.2632729,14.1345551 6.25725871,13.6942307 6.25382203,13.1104249 C4.30737333,13.5331364 3.89669027,12.1722117 3.89669027,12.1722117 C3.57836793,11.3637332 3.11957137,11.1485112 3.11957137,11.1485112 C2.48421546,10.7146305 3.16768487,10.7232222 3.16768487,10.7232222 C3.87005601,10.7726245 4.23949893,11.4444951 4.23949893,11.4444951 C4.86368564,12.5137317 5.87750575,12.2048602 6.27616044,12.0257233 C6.33973899,11.5738001 6.52059419,11.2653582 6.72035112,11.0905172 C5.16654292,10.9139579 3.53283195,10.3133983 3.53283195,7.63193005 C3.53283195,6.86812829 3.80561829,6.24308241 4.25324565,5.75421492 C4.1810754,5.57722598 3.9409375,4.86540398 4.32197921,3.90227487 C4.32197921,3.90227487 4.90922163,3.71411673 6.24608951,4.61968148 C6.80412015,4.46417178 7.40296136,4.38684652 7.9979363,4.38383942 C8.59248165,4.38684652 9.19089327,4.46417178 9.74978309,4.61968148 C11.0857918,3.71411673 11.672175,3.90227487 11.672175,3.90227487 C12.0540759,4.86540398 11.813938,5.57722598 11.7421974,5.75421492 C12.1906839,6.24308241 12.4613223,6.86812829 12.4613223,7.63193005 C12.4613223,10.3202717 10.8250338,10.91181 9.26650019,11.0849326 C9.51737771,11.3010138 9.74119139,11.7280211 9.74119139,12.38099 C9.74119139,13.316196 9.7325997,14.0709765 9.7325997,14.3003748 C9.7325997,14.4876738 9.85889763,14.7054733 10.2137347,14.6371693 C12.9922891,13.7096957 14.995443,11.0887989 14.995443,7.9979363 C14.995443,4.1329619 11.8620515,1 7.99707713,1"
     id="path2" />
  <path
     style="fill:#aeb9c0;fill-opacity:1;stroke-width:0.06779661"
     d="M 5.2340375,14.387433 C 3.2890812,13.538259 1.7836804,11.764325 1.2389388,9.6796902 1.0613452,9.0000692 1.0003828,7.7581847 1.1083634,7.0197005 1.4431709,4.7299389 2.8655756,2.7811085 4.9423729,1.7667412 5.988947,1.2555644 6.5532177,1.1173175 7.7559322,1.0774162 c 0.8057092,-0.02673 1.0994034,-0.00856 1.6280231,0.1007028 2.6086187,0.5392043 4.6601707,2.489183 5.3654967,5.0998471 0.135316,0.500853 0.15529,0.7315439 0.152622,1.7627119 -0.0028,1.0914088 -0.01784,1.2353139 -0.187469,1.7966101 -0.620284,2.0524899 -1.960412,3.6282669 -3.814031,4.4846919 -0.608426,0.281109 -0.9161326,0.346347 -1.0228384,0.216854 -0.047256,-0.05735 -0.084452,-0.571081 -0.099881,-1.379512 -0.025168,-1.318646 -0.044173,-1.419972 -0.3760745,-2.005042 -0.01215,-0.02142 0.2269661,-0.09246 0.5313674,-0.157873 1.7118855,-0.367865 2.5231375,-1.402365 2.5305395,-3.2269155 0.0032,-0.792601 -0.09679,-1.1837173 -0.431701,-1.6883209 -0.190688,-0.2873074 -0.19669,-0.3204121 -0.160202,-0.8836085 0.02849,-0.4397818 0.0094,-0.6831523 -0.07683,-0.9798002 l -0.114737,-0.3946821 -0.314086,0.0471 c -0.396304,0.059429 -0.85647,0.239869 -1.286461,0.5044449 L 9.7447281,4.5807173 9.2757539,4.4813664 C 8.6748671,4.3540702 7.3163256,4.3530563 6.7198035,4.4794588 L 6.2599458,4.5769024 5.9091319,4.370055 C 5.4508734,4.0998561 5.0092296,3.9285021 4.6210525,3.8702913 L 4.3077112,3.8233029 4.2013132,4.1815837 c -0.1181687,0.3979174 -0.1406899,1.1160047 -0.043055,1.3728042 0.051975,0.1367053 0.026841,0.2162404 -0.1400527,0.4431802 -0.356976,0.485412 -0.4943687,0.9722684 -0.4904773,1.7380251 0.00917,1.8040102 0.7350558,2.7980478 2.3592121,3.2307258 0.2584952,0.06886 0.5254443,0.125206 0.5932203,0.125206 0.1516055,0 0.1555147,-0.03086 -0.046546,0.367423 -0.093064,0.183438 -0.1692078,0.385748 -0.1692078,0.449578 0,0.128605 -0.4354254,0.268854 -0.8266319,0.266256 C 5.1000824,12.172538 4.6780115,11.950631 4.459459,11.66042 3.9047382,10.92382 3.407652,10.604317 2.9824131,10.711045 c -0.2597953,0.0652 -0.2171606,0.183174 0.1947074,0.538755 0.2658666,0.229533 0.4508802,0.474536 0.6558369,0.868489 0.4421033,0.849778 0.8829767,1.105853 1.8316681,1.0639 l 0.5170954,-0.02287 0.033359,0.576271 c 0.037224,0.643029 -0.046399,0.881964 -0.3081683,0.880528 -0.083039,-4.74e-4 -0.3858321,-0.103364 -0.6728742,-0.228688 z"
     id="path23"
     inkscape:connector-curvature="0" />
</svg>

<svg xmlns="http://www.w3.org/2000/svg" width="16" height="16" viewBox="0 0 16 16"><path fill="#161514" fill-rule="evenodd" d="M7.997 1a6.998 6.998 0 00-2.211 13.638c.35.064.477-.152.477-.338 0-.165-.006-.606-.01-1.19-1.946.423-2.356-.938-2.356-.938-.319-.808-.777-1.023-.777-1.023-.636-.434.048-.426.048-.426.702.05 1.071.721 1.071.721.625 1.07 1.639.76 2.037.582.064-.452.245-.76.444-.935-1.553-.177-3.187-.778-3.187-3.46 0-.763.273-1.388.72-1.877-.072-.177-.312-.889.069-1.852 0 0 .587-.188 1.924.718a6.702 6.702 0 011.752-.236 6.71 6.71 0 011.752.236c1.336-.906 1.922-.718 1.922-.718.382.963.142 1.675.07 1.852a2.7 2.7 0 01.72 1.878c0 2.688-1.637 3.28-3.195 3.453.25.216.474.643.474 1.296 0 .935-.008 1.69-.008 1.92 0 .187.126.404.48.336A6.998 6.998 0 007.997 1"/><path d="M5.234 14.387c-1.945-.849-3.45-2.623-3.995-4.707C1.06 9 1 7.758 1.109 7.02a6.935 6.935 0 013.833-5.253c1.047-.511 1.611-.65 2.814-.69.806-.026 1.1-.008 1.628.101 2.609.54 4.66 2.49 5.365 5.1.136.5.156.732.153 1.763-.003 1.091-.018 1.235-.187 1.796-.62 2.053-1.96 3.629-3.814 4.485-.609.281-.917.346-1.023.217-.048-.058-.085-.571-.1-1.38-.025-1.318-.044-1.42-.376-2.005-.012-.021.227-.092.531-.158 1.712-.367 2.523-1.402 2.53-3.227.004-.792-.096-1.183-.431-1.688-.19-.287-.197-.32-.16-.883.028-.44.01-.684-.077-.98l-.115-.395-.314.047c-.396.06-.856.24-1.286.505l-.335.206-.47-.1c-.6-.127-1.959-.128-2.555-.002l-.46.098-.35-.207c-.46-.27-.9-.441-1.289-.5l-.313-.047-.107.359c-.118.398-.14 1.116-.043 1.372.052.137.027.217-.14.444-.357.485-.494.972-.49 1.738.009 1.804.735 2.798 2.359 3.23.258.07.525.126.593.126.152 0 .156-.031-.046.367-.093.183-.17.386-.17.45 0 .128-.435.268-.826.266-.338-.002-.76-.224-.979-.515-.554-.736-1.051-1.056-1.477-.949-.26.065-.217.183.195.539.266.23.451.474.656.868.442.85.883 1.106 1.832 1.064l.517-.023.033.577c.037.643-.046.882-.308.88-.083 0-.386-.103-.673-.229z" fill="#aeb9c0" stroke-width=".068"/></svg>
